assets/ai/ai-moodle-square.svg

<svg xmlns="http://www.w3.org/2000/svg" width="100%" height="100%" viewBox="-75.52 -43.52 599.04 599.04"><path d="M 48 32 C 21.5 32 0 53.5 0 80 L 0 432 C 0 458.5 21.5 480 48 480 L 400 480 C 426.5 480 448 458.5 448 432 L 448 80 C 448 53.5 426.5 32 400 32 L 48 32 z M 276.37305 146.7832 L 277.02344 149.04688 L 226.20898 186.17969 C 226.20898 186.17969 239.7828 196.76665 246.7207 204.53516 C 249.85734 206.62707 252.67817 209.02381 255.17969 211.73438 C 264.62348 199.85848 281.83537 193.91992 306.8125 193.91992 C 329.6484 193.91992 347.76219 198.94941 361.1543 209.00586 C 376.37823 220.26291 383.994 236.8567 384 258.78906 L 384 365.2168 L 332.8418 365.2168 L 332.8418 264.7207 C 332.8418 243.71662 324.17764 233.21303 306.84961 233.20703 C 289.52155 233.20084 280.83983 243.70425 280.80273 264.7207 L 280.80273 365.2168 L 229.60742 365.2168 L 229.60742 264.7207 C 229.60742 249.75638 225.27362 240.12647 216.61328 235.82031 C 205.5119 243.11133 193.06253 247.96815 179.86523 250.13281 C 178.63133 254.24734 178.01348 259.1054 178.02148 264.7207 L 178.02148 365.2168 L 126.81836 365.2168 L 126.81836 258.78906 C 126.81836 253.98178 127.1842 249.43142 127.91602 245.13672 C 127.91402 245.1354 127.9128 245.13521 127.91211 245.13477 A 239.49838 239.49838 0 0 1 126.36133 214.44531 L 74.005859 213.94336 C 73.43961 219.91226 72.410877 235.25658 73.664062 258.59375 C 79.651517 279.84228 79.781524 301.19344 78.509766 320.6875 C 70.489357 301.94537 61.949846 284.7163 70.712891 259.35547 C 69.431849 235.86049 70.434219 220.23767 71.009766 213.91602 L 64.732422 213.85156 L 64 211.77148 C 142.97876 165.98832 184.67673 158.02477 276.37305 146.7832 z"/></svg>

<svg xmlns="http://www.w3.org/2000/svg" width="100%" height="100%" viewBox="-75.52 -43.52 599.04 599.04"><path d="M48 32C21.5 32 0 53.5 0 80v352c0 26.5 21.5 48 48 48h352c26.5 0 48-21.5 48-48V80c0-26.5-21.5-48-48-48H48zm228.373 114.783l.65 2.264-50.814 37.133s13.574 10.587 20.512 18.355a46.754 46.754 0 018.459 7.2c9.443-11.877 26.655-17.815 51.632-17.815 22.836 0 40.95 5.03 54.342 15.086 15.224 11.257 22.84 27.85 22.846 49.783v106.428h-51.158V264.72c0-21.004-8.664-31.508-25.992-31.514-17.328-.006-26.01 10.497-26.047 31.514v100.496h-51.196V264.72c0-14.965-4.333-24.595-12.994-28.9-11.101 7.29-23.55 12.147-36.748 14.312-1.234 4.114-1.852 8.972-1.844 14.588v100.496h-51.203V258.789c0-4.807.366-9.358 1.098-13.652l-.004-.002a239.498 239.498 0 01-1.55-30.69l-52.356-.502c-.566 5.97-1.595 21.314-.342 44.65 5.988 21.25 6.118 42.6 4.846 62.094-8.02-18.742-16.56-35.97-7.797-61.332-1.281-23.495-.279-39.117.297-45.439l-6.278-.064-.732-2.08c78.979-45.784 120.677-53.747 212.373-64.989z"/></svg>
